X: 41301
T: Tune For Dad
R: reel
M: 4/4
K: Eminor
B/d/|gfdB "C"e4|ed B/A/G "D"A3z|"G"BB/A/ G>A Bd3-|d2 e/d/A/B/ dz A/B/d|
"G"gf g/a/g/f/ "C"e4|ed B/A/G "D"A zA>B|AG A/B/D "Em"E4-|E4-E z2 B/d/|
"Em"gfdB "C"e4|ed B/A/G "D"A3z|"G"BB/A/ G>A Bd3-|d>g e/d/A/B/ dz A/B/d|
"G"gf g/a/g/f/ "C"e4|ed B/A/G "D"A zA>B|AG A/B/D "Em"E4-|E4-E z2 A/B/||
"C"cBGE "Am"A4-|A4- "D"A z2 A/B/|"C"c>B A<G "G"A/B/ d3-|d2 e/d/A/B/ d2 z A/B/|
"C"cBGE "Am"A4-|A2 A/G/A/B/ "D"A z A>B|AG A/B/D "Em"E4-|E4- E z2 A/B/|
"C"cBGE "Am"A4-|A4- "D"A z2 A/B/|"C"c>B A<G "G"A/B/ d3-|d>g e/d/A/B/ d z2 A/B/|
"C"cBGE "Am"A4-|A2 A/G/A/B/ "D"A z A>B|AG A/B/D "Em"E4-|E4- E z2 B/d/||

